!!!COM:	Martini, Johannes
!!!CDT:	~1440///-~1497//
!!!OTL:	Fuga ad quatuor
!!!AGN:	Song; Chanson
!!!SCT:	Mar3008
!!!SCA:	Mar3008
!!!voices:	4
**kern	**kern	**kern	**kern
*staff4	*staff3	*staff2	*staff1
*Ivox	*Ivox	*Ivox	*Ivox
*I"Bassus	*I"Tenor	*I"Altus	*I"Cantus
*I'B	*I'T	*I'A	*I'Cn
*clefF4	*clefGv2	*clefGv2	*clefG2
*k[]	*k[]	*k[]	*k[]
*M2/1	*M2/1	*M2/1	*M2/1
*met(C)	*met(C)	*met(C)	*met(C)
=1-	=1-	=1-	=1-
!!LO:TX:X=-40:Z=12:t=Canon&colon; ad hypodiapason et hypodiapente [Canon at the 8ve (tenor, one breve) and 5th (bassus/altus, two/three breves)]
0r	0r	0r	1cc
.	.	.	2b\
.	.	.	2g/
=2	=2	=2	=2
0r	1c	0r	1a
.	2B\	.	2g/
.	2G/	.	[2g/
=3	=3	=3	=3
1F	1A	0r	4g/]
.	.	.	4f/
.	.	.	4f/
.	.	.	4e/
2E\	2G/	.	1g
2C/	[2G/	.	.
=4	=4	=4	=4
1D	4G/]	1f	0r
.	4F/	.	.
.	4F/	.	.
.	4E/	.	.
2C/	1G	2e\	.
[2C/	.	2c\	.
=5	=5	=5	=5
4C/]	0r	1d	1r
4BB/	.	.	.
4BB/	.	.	.
4AA/	.	.	.
1C	.	2c\	1cc
.	.	[2c\	.
=6	=6	=6	=6
0r	1r	4c\]	2dd\
.	.	4B\	.
.	.	4B\	4cc\
.	.	4A/	4b\
.	1c	1c	2a/
.	.	.	2cc\
=7	=7	=7	=7
1r	2d\	0r	2b\
.	4c\	.	2g/
.	4B\	.	.
1F	2A/	.	1a
.	2c\	.	.
=8	=8	=8	=8
2G\	2B\	1r	2b\
4F\	2G/	.	2r
4E\	.	.	.
2D\	1A	1f	1a
2F\	.	.	.
=9	=9	=9	=9
2E\	2B\	2g\	2.g/
2C/	2r	4f\	.
.	.	4e\	4e/
1D	1A	2d\	2f/
.	.	2f\	2f/
=10	=10	=10	=10
2E\	2.G/	2e\	1g
2r	.	2c\	.
.	4E/	.	.
1D	2F/	1d	2r
.	2F/	.	2dd\
=11	=11	=11	=11
2.C/	1G	2e\	2g/
.	.	2r	2cc\
4AA/	.	.	.
2BB/	2r	1d	2dd\
2BB/	2d\	.	2dd\
=12	=12	=12	=12
1C	2G/	2.c\	2.ee\
.	2c\	.	.
.	.	4A/	4dd\
2r	2d\	2B\	1dd
2G\	2d\	2B\	.
=13	=13	=13	=13
2C/	2.e\	1c	2cc\
2F\	.	.	4a/
.	4d\	.	2cc\
2G\	1d	2r	.
.	.	.	8b/L
.	.	.	8a/J
2G\	.	2g\	2b\
=14	=14	=14	=14
2.A\	2c\	2c\	1cc
.	4A/	2f\	.
4G\	2c\	.	.
1G	.	2g\	1r
.	8B/L	.	.
.	8A/J	.	.
.	2B\	2g\	.
=15	=15	=15	=15
2F\	1c	2.a\	1cc
4D\	.	.	.
2F\	.	4g\	.
.	1r	1g	2b\
8E\L	.	.	.
8D\J	.	.	.
2E\	.	.	2cc\
=16	=16	=16	=16
1F	1c	2f\	1a
.	.	4d\	.
.	.	2f\	.
1r	2B\	.	2.g/
.	.	8e\L	.
.	.	8d\J	.
.	2c\	2e\	.
.	.	.	4a/
=17	=17	=17	=17
1F	1A	1f	1f
2E\	2.G/	1r	2r
2F\	.	.	2c/
.	4A/	.	.
=18	=18	=18	=18
1D	1F	1f	2d/
.	.	.	2f/
2.C/	2r	2e\	2c/
.	2C/	2f\	2a/
4D\	.	.	.
=19	=19	=19	=19
1BB	2D/	1d	4b\
.	.	.	2dd\
.	2F/	.	.
.	.	.	4b\
2r	2C/	2.c\	4cc\
.	.	.	4b\
2FF/	2A/	.	[2a/
.	.	4d\	.
=20	=20	=20	=20
2GG/	4B\	1B	2a/]
.	2d\	.	.
2BB/	.	.	2g/
.	4B\	.	.
2FF/	4c\	2r	2.a/
.	4B\	.	.
2D\	[2A/	2F/	.
.	.	.	4b\
=21	=21	=21	=21
4E\	2A/]	2G/	4cc\
2G\	.	.	4dd\
.	2G/	2B\	2ee\
4E\	.	.	.
4F\	2.A/	2F/	1a
4E\	.	.	.
[2D\	.	2d\	.
.	4B\	.	.
=22	=22	=22	=22
2D\]	4c\	4e\	0r
.	4d\	2g\	.
2C/	2e\	.	.
.	.	4e\	.
2.D\	1A	4f\	.
.	.	4e\	.
.	.	[2d\	.
4E\	.	.	.
=23	=23	=23	=23
4F\	0r	2d\]	1r
4G\	.	.	.
2A\	.	2c#i\	.
1D	.	2.d\	2r
.	.	.	2dd\
.	.	4e\	.
=24	=24	=24	=24
0r	1r	4f\	2cc\
.	.	4g\	.
.	.	2a\	2a/
.	2r	1d	2b\
.	2d\	.	2b\
=25	=25	=25	=25
1r	2c\	0r	2.cc\
.	2A/	.	.
.	.	.	4b\
2r	2B\	.	4g/
.	.	.	4a/
2G\	2B\	.	4b\
.	.	.	4cc\
=26	=26	=26	=26
2F\	2.c\	1r	1a
2D\	.	.	.
.	4B\	.	.
2E\	4G/	2r	2g/
.	4A/	.	.
2E\	4B\	2g\	[2g/
.	4c\	.	.
=27	=27	=27	=27
2.F\	1A	2f\	4g/]
.	.	.	4f/
.	.	2d\	4f/
4E\	.	.	4e/
4C/	2G/	2e\	1g
4D\	.	.	.
4E\	[2G/	2e\	.
4F\	.	.	.
=28	=28	=28	=28
1D	4G/]	2.f\	2a/
.	4F/	.	.
.	4F/	.	4g/
.	4E/	4e\	4f/
2C/	1G	4c\	1e
.	.	4d\	.
[2C/	.	4e\	.
.	.	4f\	.
=29	=29	=29	=29
4C/]	2A/	1d	1r
4BB/	.	.	.
4BB/	4G/	.	.
4AA/	4F/	.	.
1C	1E	2c\	2cc\
.	.	[2c\	2ee\
=30	=30	=30	=30
2D\	1r	4c\]	1dd
.	.	4B\	.
4C/	.	4B\	.
4BB/	.	4A/	.
1AA	2c\	1c	2cc\
.	2e\	.	4a/
.	.	.	[4cc\
=31	=31	=31	=31
1r	1d	2d\	4cc\]
.	.	.	8b/L
.	.	.	8a/J
.	.	4c\	2b\
.	.	4B\	.
2F\	2c\	1A	1cc
2A\	4A/	.	.
.	[4c\	.	.
=32	=32	=32	=32
1G	4c\]	1r	1r
.	8B/L	.	.
.	8A/J	.	.
.	2B\	.	.
2F\	1c	2f\	1cc
4D\	.	2a\	.
[4F\	.	.	.
=33	=33	=33	=33
4F\]	1r	1g	2b\
8E\L	.	.	.
8D\J	.	.	.
2E\	.	.	2cc\
1F	1c	2f\	1a
.	.	4d\	.
.	.	[4f\	.
=34	=34	=34	=34
1r	2B\	4f\]	2.g/
.	.	8e\L	.
.	.	8d\J	.
.	2c\	2e\	.
.	.	.	4a/
1Fl	1Al	1fl	1fl
==	==	==	==
*-	*-	*-	*-
!!!RDF**kern: l=long note in original notation
!!!RDF**kern: i=editorial accidental
!!!ENC:	Chris Gage 10-30-2014
!!!END:	2015/03/01/
!!!EED:	Jesse Rodin
!!!EEV:	2015/03/05/
!!!ONB:	Translated from MusicXML and edited on 2015/03/05/ by Craig Sapp
!!muse2ps: C^@{COM}^i2I150v85,85,85,150Q16
